cssgg/youtube.svg

<svg
  width="24"
  height="24"
  viewBox="0 0 24 24"
  fill="none"
  xmlns="http://www.w3.org/2000/svg"
>
  <path
    fill-rule="evenodd"
    clip-rule="evenodd"
    d="M5 7H19C19.5523 7 20 7.44771 20 8V16C20 16.5523 19.5523 17 19 17H5C4.44772 17 4 16.5523 4 16V8C4 7.44772 4.44772 7 5 7ZM2 8C2 6.34315 3.34315 5 5 5H19C20.6569 5 22 6.34315 22 8V16C22 17.6569 20.6569 19 19 19H5C3.34315 19 2 17.6569 2 16V8ZM10 9L14 12L10 15V9Z"
    fill="currentColor"
  />
</svg>

<svg viewBox="0 0 24 24" xmlns="http://www.w3.org/2000/svg"><path fill-rule="evenodd" d="M5 7h14c.55 0 1 .44 1 1v8c0 .55-.45 1-1 1H5c-.56 0-1-.45-1-1V8c0-.56.44-1 1-1ZM2 8c0-1.66 1.34-3 3-3h14c1.65 0 3 1.34 3 3v8c0 1.65-1.35 3-3 3H5c-1.66 0-3-1.35-3-3V8Zm8 1l4 3 -4 3V9Z"/></svg>
